X:1
T:Amour, amour
T:Amour, amour
T:Clement Janequin
T:Source : Trium vocum cantiones---Nürnberg---J.Petreius---1541. Editor : André Vierendeels (10/10/16).
T:Notes : Original clefs : C1, C3, F4 Editorial accidentals above the staff Original note values have been halved 
T:©
T:©
T:©
C:Clement Janequin
Z:©
%%score [ 1 2 3 ]
L:1/8
Q:1/4=126
M:2/2
K:F
V:1 treble nm="Soprano" snm="S"
V:2 treble-8 nm="Tenor" snm="T"
V:3 bass nm="Bass" snm="B"
V:1
 G4 F2 F2 | B4 z2 B2 | B2 B2 A2 A2 | G4 FGAF | GFED E4 | D4 z2 D2 | F4 G2 B2- | B2 A2 B4 | %8
w: A- mour, a-|mour, tu|es par trop cru-|el- * * * *||le, quant|tes a- *|* * mantz,|
 z2 B2 B2 A2 | BAGF G2 A2- | A2 G4 F2 | G4 z2 A2- | A2 F2 G4 | A4 z2 A2 | A2 A2 G2 G2 | F2 G3 FED | %16
w: qui ne pen-|sent _ _ _ _ _|_ qu'à _|bien, tu|_ ne fais|rien, mais|mon cuer le scait|_ _ _ _ _|
 C2 F4 E2 | F4 z2 F2 | G2 G2 F3 G | A2 B3 A/G/ A2 |[M:2/4] B4 |:[M:2/2] z2 F2 G2 A2 | BAGF G2 A2- | %23
w: |bien, se'a-|mour me prent, _|_ _ _ _ _||c'est cho- se|na- * * * * *|
 AG G4 F2 | G8 :| %25
w: * tu- rel- *|le.|
V:2
 G4 d2 d2 | d4 z2 d2 | d2 d2 c2 c2 | BABc defd |"^#" e2 d4 c2 | d4 z2 d2 | d6 cB | c4 B4 | %8
w: * mour, a-|mour, tu|es par trop cru-|el- * * * * * * *||le, quant|tes _ _|a- mantz,|
 z2 d2 d2 c2 | dcBA B2 c2- | cBAG A4 | G4 z2 c2 | A4 B4 | c4 z2 c2 | c2 c2 B2 B2 | A2 G2 c3 B | %16
w: qui ne pen-|sent _ _ _ _ qu'à|_ _ _ _ _|bien, tu|ne fais|rien, mais|mon cuer le scait|bien, mais mon _|
 A2 GF G4 | F4 z2 d2 | B2 c2 d4 | c2 B2 c4 |[M:2/4] B4 |:[M:2/2] z2 A2 B2 c2 | dcBA B2 c2- | %23
w: cuer le _ scait|bien, se'a-|mour me prent,|s'a- mour me|prent,|c'est cho- se|na- * * * * tu-|
 cBAG A4 | G8 :| %25
w: * * * * rel-|le.|
V:3
 G,4 D,2 D,2 | G,4 z2 G,2 | G,2 D,2 F,2 F,2 | G,4 D,4 | C,2 D,2 A,4 | D,4 z2 D,2 |"^#" D,4 G,4 | %7
w: A- mour, a-|mour, tu|es par trop cru-|el- *||le, quant|tes a-|
 F,4 B,,4 | z2 B,,2 B,,2 F,2 | B,,2 _E,3 D,C,B,, |"^b" C,2 E,2 D,4 | G,4 z2 F,2- | F,2 D,2 G,4 | %13
w: * mantz,|qui ne pen-|sent qu'à- * * *||bien, tu|_ ne fais|
 F,4 z2 F,2- | F,E,C,D, E,F, G,2 | D,2 G,2 C,3 D,/E,/ | F,2 D,2 C,4 | D,4 z2 D,2 | %18
w: rien, mais|_ _ _ _ mon _ cuer|le scait _ _ _|_ _ _|bien, se'a-|
"^b""^b""^-natural" E,2 E,2 D,3 E, |"^#" F,2 G,2 F,4 |[M:2/4] B,,4 |:[M:2/2] z2 D,2 G,2 F,2 | %22
w: mour me _ _|_ _ _|prent,|c'est cho- se|
 D,2 G,4 C,2 |"^b" E,4 D,4 | G,,8 :| %25
w: na- tu- *|* rel-|le.|

